svg/color/cag.svg

<?xml version="1.0" encoding="UTF-8" ?>
<!DOCTYPE svg PUBLIC "-//W3C//DTD SVG 1.1//EN" "http://www.w3.org/Graphics/SVG/1.1/DTD/svg11.dtd">
<svg width="250pt" height="250pt" viewBox="0 0 250 250" version="1.1" xmlns="http://www.w3.org/2000/svg">
<g id="#ffffffff">
<path fill="#ffffff" opacity="1.00" d=" M 0.00 0.00 L 250.00 0.00 L 250.00 250.00 L 0.00 250.00 L 0.00 0.00 M 20.85 68.75 C 12.50 84.51 7.72 102.19 7.03 120.01 C 5.20 156.65 21.58 193.73 49.87 217.12 C 71.97 235.84 100.98 246.44 129.99 245.61 C 145.53 245.89 161.03 242.64 175.33 236.64 C 203.89 225.13 227.58 202.15 240.14 174.05 C 241.17 171.78 241.87 169.38 242.52 166.98 C 225.04 161.55 207.41 156.58 189.83 151.50 C 187.36 155.20 185.46 159.26 182.91 162.91 C 170.56 180.33 149.42 191.40 127.97 190.74 C 109.31 190.90 91.05 182.13 78.80 168.18 C 68.86 157.27 63.20 142.74 62.49 128.05 C 61.62 110.58 68.15 92.89 80.26 80.26 C 89.59 70.19 102.17 63.38 115.55 60.51 C 131.97 57.39 149.60 60.17 163.77 69.22 C 175.20 76.11 183.95 86.74 189.58 98.75 C 194.53 98.24 199.10 96.13 203.89 94.91 C 216.89 91.11 229.86 87.21 242.86 83.39 C 241.47 77.39 238.11 72.13 235.43 66.66 C 219.96 38.43 192.68 17.08 161.65 8.60 C 147.30 4.26 132.14 3.86 117.28 4.72 C 77.07 8.05 39.50 32.96 20.85 68.75 Z" />
</g>
<g id="#3edbb5ff">
<path fill="#3edbb5" opacity="1.00" d=" M 20.85 68.75 C 39.50 32.96 77.07 8.05 117.28 4.72 C 132.14 3.86 147.30 4.26 161.65 8.60 C 192.68 17.08 219.96 38.43 235.43 66.66 C 238.11 72.13 241.47 77.39 242.86 83.39 C 229.86 87.21 216.89 91.11 203.89 94.91 C 199.10 96.13 194.53 98.24 189.58 98.75 C 183.95 86.74 175.20 76.11 163.77 69.22 C 149.60 60.17 131.97 57.39 115.55 60.51 C 102.17 63.38 89.59 70.19 80.26 80.26 C 68.15 92.89 61.62 110.58 62.49 128.05 C 63.20 142.74 68.86 157.27 78.80 168.18 C 91.05 182.13 109.31 190.90 127.97 190.74 C 149.42 191.40 170.56 180.33 182.91 162.91 C 185.46 159.26 187.36 155.20 189.83 151.50 C 207.41 156.58 225.04 161.55 242.52 166.98 C 241.87 169.38 241.17 171.78 240.14 174.05 C 227.58 202.15 203.89 225.13 175.33 236.64 C 161.03 242.64 145.53 245.89 129.99 245.61 C 100.98 246.44 71.97 235.84 49.87 217.12 C 21.58 193.73 5.20 156.65 7.03 120.01 C 7.72 102.19 12.50 84.51 20.85 68.75 Z" />
</g>
</svg>

<?xml version="1.0" encoding="utf-8"?>
<!-- Generator: Adobe Illustrator 26.0.3, SVG Export Plug-In . SVG Version: 6.00 Build 0)  -->
<svg version="1.1" id="Layer_1" xmlns="http://www.w3.org/2000/svg" xmlns:xlink="http://www.w3.org/1999/xlink" x="0px" y="0px"
	 viewBox="0 0 250 250" style="enable-background:new 0 0 250 250;" xml:space="preserve">
<style type="text/css">
	.st0{fill:#3EDBB5;}
</style>
<g id="_x23_3edbb5ff">
	<path class="st0" d="M20.9,68.8C39.5,33,77.1,8.1,117.3,4.7c14.9-0.9,30-0.5,44.4,3.9c31,8.5,58.3,29.8,73.8,58.1
		c2.7,5.5,6,10.7,7.4,16.7c-13,3.8-26,7.7-39,11.5c-4.8,1.2-9.4,3.3-14.3,3.8c-5.6-12-14.4-22.6-25.8-29.5
		c-14.2-9.1-31.8-11.8-48.2-8.7c-13.4,2.9-26,9.7-35.3,19.8c-12.1,12.6-18.6,30.3-17.8,47.8c0.7,14.7,6.4,29.2,16.3,40.1
		c12.2,14,30.5,22.7,49.2,22.6c21.4,0.7,42.6-10.4,54.9-27.8c2.6-3.7,4.4-7.7,6.9-11.4c17.6,5.1,35.2,10.1,52.7,15.5
		c-0.7,2.4-1.4,4.8-2.4,7.1c-12.6,28.1-36.2,51.1-64.8,62.6c-14.3,6-29.8,9.2-45.3,9c-29,0.8-58-9.8-80.1-28.5
		C21.6,193.7,5.2,156.6,7,120C7.7,102.2,12.5,84.5,20.9,68.8z"/>
</g>
</svg>
